X:1
T:C Major Stephen Jenks, 1818
T:Isaac Watts, 1719 (Psalm 148)         66. 86. (S. M.)
T:Prussia
T:Transcribed from Jenks' The Harmony of Zion, 1818.
%%score [ 1 2 3 4 ]
L:1/8
Q:1/4=80
M:2/4
K:C
V:1 treble nm="Tr." snm="Tr."
V:2 treble nm="C." snm="C."
V:3 treble-8 nm="T." snm="T."
V:4 bass nm="B." snm="B."
V:1
"^2. He built those worlds above,     And fixed their wondrous frame;     By     his  command  they  stand  or     move,    And  ev     –    er""^1. Let  every     creature   join            To praise  th' e – ter – nal  God;      Ye       heav'nly   hosts,  the  song be    –   gin,     And  sound  his" G2 G>G | %1
 A2 B2 | c3 z | c2 c>c | B2 A2 | G2 z c | G2 A2 | G2 c2 | d2 dc | B2 z G | G2 E2 | %11
"^name  a – broad.              Thou   sun      with      golden  beams,      And  moon with    pa   –   ler            rays;       Ye    star  –  ry            lights, ye""^speak his  name.               Wind,  hail,    and       flashing    fire,        A  –  gree     to        praise  the          Lord,     When ye       in             dreadful" ^F2 F2 | %12
 G4 |: z2 G2 | GE AG | G2 F2 | E2 z G | c2 dc | c2 B2 | A2 z d | d>e d>e | d2 d2 | %22
"^twink  – ling      flames,         Shine   to        your          Ma – ker's  praise.""^storms    con  –  spire             To      ex     –     e      –      cute   his     word." d>e d>e | %23
 d2 z E | G2 A2 | G2 F2 | E4 :| %27
V:2
"^4. From mountains near the sky       Let     his high    praise re – sound;  From humble shrubs and ce–dars       high,    And     vales  and""^3. By  all   his   works a  –  bove         His    honors       be    ex – pressed;   But saints that taste his  sa – ving      love     Should  sing  his" E2 G>G | %1
 E2 G2 | G3 z | G2 A>A | ^F2 F2 | D2 z G | G2 E2 | G2 E2 | D2 F2 | E2 z E | G2 G2 | %11
"^praises   best.                  Let     earth   and        o– cean   know    They   owe  their    Ma   –   ker         praise;   Praise  him,    ye         wa – tery""^fields  around.                  By     all         the       earth-born race     His      ho – nors     be         ex   –    pressed;  But   saints,  that       know his" D2 D2 | %12
 D4 |: z4 | z4 | z4 | z2 z E | G2 FE | F2 E^G | A2 z2 | z4 | z4 | %22
"^worlds  be     –      low,           And    mon –  sters           of      the      seas.""^heaven – ly            grace        Should learn    to                praise  him  best." z4 | %23
 z2 z G | GE AF | G2 G2 | G4 :| %27
V:3
"^5. Monarchs of wide command,        Praise  ye  th'e  – ter – nal  King;    Jud – ges, a   –  dore  that  sove –reign hand   Whence  all      your""^6. U – ni – ted   zeal  be   shown         His  wondrous  fame  to    raise:   God    is    the    Lord;  his  name  a    –   lone      De  – serves   our" c2 d>B | %1
 c2 d2 | e3 z | e2 A>A | d2 d2 | d2 z e | d2 c2 | B2 A2 | f2 A2 | ^G2 z c | d2 ed/c/ | %11
"^honors spring.              Let       vig  –  orous   youth en–gage       To     sound his      prai  –  ses          high:   While  gro – wing        babes,  and""^endless  praise.              Let       na   –   ture      join with   art,      And    all      pro – nounce   him       blest;    But     saints,  that       dwell   so" B2 A2 | %12
 G4 |: z2 c2 | cG FE | E2 D2 | C2 z c | e2 A2 | A2 ^G2 | d2 z2 | z4 | z4 | %22
"^with  –  ering         age,         Their   fee   –   bler            voi – ces      try.""^near       his            heart,     Should  sing     his              prai – ses    best." z4 | %23
 z2 z G | c2 f>e | e2 d2 | c4 :| %27
V:4
 C,2 G,>G, | A,2 G,2 | C3 z | E,2 F,>F, | D,2 D,2 | G,,2 z C, | B,,2 C,2 | G,2 A,2 | D,2 D,2 | %9
 E,3 C, | B,,2 C,B,,/C,/ | D,2 D,2 | G,,4 |: z4 | z4 | z4 | z2 z C, | C,2 F,2 | F,2 ^G,2 | %19
 D,2 z G, | G,2 G,2 | G,2 G,2 | G,2 G,2 | D,2 z C, | E,2 F,2 | %25
"^___________________________________________________________________\nEdited by B. C. Johnston, 2016\n   1. Measure 19, \nCounter\n: last note changed from G to G# (as in \nTenor\n and \nBass\n).\n   2. Measure 27: First ending eliminated; both end on half-note." G,2 G,,2 | %26
 C,4 :| %27

